X: 14061
T: Fred's Advice
R: reel
M: 4/4
K: Gmajor
|:G3E D3E|G3A B2gf|e3c A3G|F3G ABBA|
G3E D3E|G3A B2gf|e3cf3d|1 edcB A2G2-:|2 edcB ABcd||
|:e3c A3G|F3G ABag|f3d B3A|GFGA Bdgf|
e3c A3G|F3G ABcd|e3c f3d|1 edcB ABcd:|2 edcB A2G2-||

